icons/arrow-left.svg

<svg xmlns="http://www.w3.org/2000/svg" width="24" height="24" viewBox="0 0 24 24">
  <path d="M10.363961,5.63603897 C10.724445,5.99652293 10.7521745,6.56375399 10.4471496,6.95604519 L10.363961,7.05025253 L6.414,10.9991458 L20,11 C20.5522847,11 21,11.4477153 21,12 C21,12.5128358 20.6139598,12.9355072 20.1166211,12.9932723 L20,13 L6.414,12.9991458 L10.363961,16.9497475 C10.7544853,17.3402718 10.7544853,17.9734367 10.363961,18.363961 C10.0034771,18.724445 9.43624601,18.7521745 9.04395481,18.4471496 L8.94974747,18.363961 L3.29289322,12.7071068 L3.21968877,12.625449 C3.21739784,12.6225945 3.21512226,12.6197272 3.21286214,12.6168472 L3.29289322,12.7071068 C3.25482231,12.6690359 3.2204628,12.628659 3.1898147,12.5864257 C3.17541687,12.5664533 3.16150681,12.5456983 3.14837237,12.5244138 C3.13863517,12.5087703 3.12981337,12.4935488 3.12142608,12.4781534 C3.11185933,12.4604898 3.10247102,12.4419547 3.09365378,12.4230991 C3.08567905,12.4060985 3.07819642,12.3887956 3.07122549,12.371336 C3.06331574,12.3515792 3.05612249,12.3317977 3.04954668,12.3117364 C3.04472872,12.2968513 3.04009773,12.2814633 3.03584514,12.265993 C3.02983363,12.2444365 3.0246398,12.2227461 3.02016515,12.2007941 C3.01671819,12.1834538 3.01365592,12.1661068 3.01105328,12.1487043 C3.00806389,12.1291721 3.00568824,12.1091935 3.00391025,12.0890432 C3.00190536,12.0660447 3.00065719,12.0430382 3.00019915,12.0200189 C3.00006675,12.0134712 3,12.0067434 3,12 L3.00017973,11.9809819 C3.0006228,11.9575431 3.00188502,11.9341169 3.00396641,11.9107499 L3,12 C3,11.9493797 3.00376119,11.8996379 3.01101934,11.8510388 C3.01362808,11.834051 3.01670217,11.8166247 3.02024007,11.7992742 C3.0246398,11.7772539 3.02983363,11.7555635 3.03572097,11.7341604 C3.04017413,11.7182588 3.04489522,11.7025958 3.05000842,11.6870335 C3.0559003,11.6689468 3.06244532,11.6508514 3.06948879,11.6330072 C3.07731015,11.613165 3.08591191,11.5932325 3.09519221,11.5735404 C3.1040443,11.5549095 3.1131069,11.5371537 3.12267436,11.5197141 C3.12986112,11.5064305 3.13772719,11.4928304 3.14593987,11.4793822 C3.15891923,11.4583066 3.17252629,11.4377852 3.1868509,11.4178133 C3.19602294,11.4048869 3.20595004,11.3917355 3.21624472,11.3787805 C3.2404037,11.3484595 3.26587927,11.3199072 3.29289322,11.2928932 L8.94974747,5.63603897 C9.34027176,5.24551468 9.97343674,5.24551468 10.363961,5.63603897 Z"/>
</svg>

<svg xmlns="http://www.w3.org/2000/svg" viewBox="0 0 24 24">
  <path d="M10.36 5.64a1 1 0 0 1 .09 1.32l-.09.09L6.41 11H20a1 1 0 0 1 .12 2H6.4l3.95 3.95a1 1 0 0 1-1.32 1.5l-.09-.09-5.66-5.65-.07-.08v-.01l.07.09A1 1 0 0 1 3 12v-.02a1 1 0 0 1 0-.07V12a1 1 0 0 1 .3-.7l5.65-5.66a1 1 0 0 1 1.41 0z"/>
</svg>
